X:1
T:Concierto
T:Concierto
T:para Contrabajo y Piano
T:DRAGONETTI (1763-1846) Alex Nuñez Transcripción Digital
T:E. NANNY Nº. 23 *Los clásicos del contrabajo*
T:para Contrabajo y Piano
C:DRAGONETTI (1763-1846)
Z:E. NANNY *Los clásicos del contrabajo*
L:1/8
Q:1/4=100
M:4/4
K:G
V:1 bass nm="Piano" snm="Pno."
V:1
"^Allegro moderato" z8 | z8 | z8 | z8 | z8 | z8 | z8 | z8 | z8 |"^Piano" G,4- G,F,E,D, | %10
 D,C,B,,A,, G,,F,,E,,D,, |!f!"^C. B" G4 B4 | d4- d/D,/c/D,/ B/D,/A/D,/ | %13
 G/D,/G/D,/ F/D,/E/D,/ D/D,/C/D,/ B,/D,/A,/D,/ | %14
 G,/D,/E,/F,/ G,/A,/B,/A,/ G,/D,/E,/F,/ G,/A,/B,/C/ | %15
"_Cresc" D/^C/D/E/ F/G/A/B/!<(! =c/B/A/G/ B/A/G/F/!<)! | %16
 G/D/E/F/ G/A/B/c/ (3d!plus!G!2!B[K:treble] (3!open!!3!d!open!!plus!g!open!!1!b | %17
 !open!!2!d'4[K:bass]!ff! v[D,F]4 | !arpeggio!v[G,B,DG]2 z2 z4 | z8 | z8 | z8 |!mf! vD,4 (F2 D2) | %23
 A4- A(B/A/ G/F/E/D/) | (^C/B,/A,/B,/ C/D/E/F/) (GB)AG | (G4 F) z d2 | d4-"_dolciss." d(^cBA) | %27
 (A4 ^G) z d2 | d4- d(BA=G) | GF F4!p! (E/F/)G/A/ | B/A/B/A/ G/F/E/D/ B/A/B/A/ G/F/E/D/ | %31
 A/B/A/G/"_Cresc" F/E/D/^C/ B,/A,/G,/F,/ E,/D,/^C,/B,,/ | (A,,>B,,) (3^C,D,E, (3F,E,D, (3E,F,G, | %33
 (3A,G,F, (3G,A,B,"_Cresc" (3^CB,A, (3B,CD | (3ED^C (3DEF (3GFE (3FGB | %35
 A(d/^c/) B/A/G/F/ E/D/^C/B,/ A,/G,/F,/E,/ |!f! D,4 (uF,3 E,) | D,4 z4 | z8 | z8 | z8 | %41
!mf! A,,4 uA3 A | AG/A/ (B/A/)G/B/ A(B/A/) G/F/E/D/ | (3EFG (3AB^c (3(dA).A (3(AG).F | %44
 (3(GF).E (3(ED).^C (!>!D>A,) (3uB,CD | (3EB,^C (3DEF (3GEF"_Cresc" (3GAB | %46
 (3AFG (3AB^c[K:treble] (3!open!!3!d!open!A!open!!plus!d (3!1!f!open!!plus!d!open!!1!f | %47
 (3!open!!3!a!open!!plus!d!open!!1!f (3!open!!2!a!open!!1!f!open!!2!a (3!open!!3!d'!open!!2!a!open!!1!f (3!open!!2!a!open!!1!f!open!!plus!d | %48
 !open!!2!e4- e z[K:bass] A->A | AG/A/ (B/A/)G/B/ (3ABA (3GAB | (3=cBA"_Cresc" (3AGF (3cBA (3AGF | %51
 Gd^cB (3(BA).G (3(GF).E | F/D,/E/D,/"_Cresc" F/D,/G/D,/ A/D,/B/D,/ ^c/D,/d/D,/ | %53
!f! A,,4- (3A,,D,F, (3A,!plus!D!2!F | %54
 !open!!3!A!open!!plus!d[K:treble] !open!!1!f!open!!2!a"_(1er)" !open!!2!d'"_(2e)"!open!!2!a !open!!1!f"_(1er)"!open!!plus!d | %55
 T!1!!2!e8 |({de)} d2 z2 z4 | z8 | z8 | z8 | z8 | z8 | z8 | z8 |[K:bass]!f! (Dd) d3 c/B/ c2- | %65
 cB/A/ (3BAG AD G2- | GG/B/ A/G/A/B/ GG/B/ A/G/A/B/ | c/c/B/A/ G/F/E/D/ C2 z2 | %68
!<(! (Cc) c3 B/A/ B2-!<)! | BA/G/ (3AGF GB D2- | DG/B/ A/G/F/E/ F/B/A/G/ F/E/D/C/ | %71
 B,/B,/C/D/ E/F/G/A/ B2 z2 |!mf! (!>!E,>B, (3EGB) (!>!c>A (3GFE) | %73
!>(! (^D>B,) (3(B,^A,B,) (3(^D!<(!=D^D) (3(F^EF)!>)!!<)! | (B>=E) (3(E^DE) (3(GFG) (3(B^AB) | %75
[K:treble] e2[K:bass] (3(A,^G,A,)!<(! (3(^C=C^C) (3(E^DE)!<)! | (A>=D) (3(D^CD) (3(F^EF) (3(A^GA) | %77
 d2 (3(D^CD) (3(GFG) (3(B^AB) | %78
 d2"_Cresc" (3uD,F,A, (3!open!!plus!D!2!F!open!!3!A[K:treble] (3!open!!plus!d!open!!1!f!open!!2!a | %79
"_(1er)" !fermata!!open!!2!d'4 z4 |[K:bass]!f! G4 B4 | d4- d/D,/c/D,/ B/D,/A/D,/ | %82
 A/D,/G/D,/ F/D,/E/D,/ D/D,/C/D,/ B,/D,/A,/D,/ | %83
 G,/D,/E,/F,/ G,/A,/B,/A,/ G,/D,/E,/F,/ G,/A,/B,/C/ | %84
 D/^C/D/E/ F/G/A/B/"_Cresc" =c/B/A/G/ B/A/G/F/ | %85
!<(! G/D/E/F/ G/A/B/c/ (3d!plus!G!3!B[K:treble] (3!open!!3!d!open!!plus!g!open!!1!b!<)! | %86
 !open!!2!d'4[K:bass]!ff! v[D,F]4 | !arpeggio!v[G,B,DG]2 z2 z4 | z8 | z8 | z8 | %91
!f! !>!c3 (B/A/) GFED | DCB,A, G,F,E,D, | !>!C,4- (3(C,B,,C,) (3(E,G,C) | %94
 (3EGc (3cAG (3F(D^C (3D)[K:treble]d=c | (3B(gf (3g)(d^c (3d)[K:bass](BA (3G)FE | %96
 (3D(GF (3G)(D^C (3D)(B,^A, (3B,)G,E, | %97
 (3D,"_2c C.____________________________|"F,A, (3!plus!D!2!F!open!!3!A[K:treble] (3!open!!plus!d!open!!1!f!open!!2!a (3!open!!3!=c'!open!!2!a!open!!1!f | %98
"_1er C." (3!open!!plus!g!open!!1!b!open!!2!d' !open!!3!g'2 z4 | %99
[K:bass] !>!C,(D,/E,/) =F,/G,/A,/B,/ C/G,/A,/B,/!<(! C/D/E/=F/!<)! | G/C/D/E/ =F/G/A/B/ c2 z2 | %101
 !>!D,(E,/^F,/) G,/A,/B,/C/ D/G,/A,/B,/!<(! C/D/E/F/!<)! | G/D/E/F/[K:treble] G/A/B/c/ d2 (ug>g) | %103
 (3(gd)d (3(dB).B (3(B!open!!plus!G).G (3(!open!!plus!G!open!!plus!D).D | %104
 (3(!plus!Dc).c (3(cA).A (3(AF).F (3(FD).D | %105
 (D/g/).g/.g/ (g/d/).d/.d/ (d/B/).B/.B/ (!>!A/G/).F/.E/ | %106
[K:bass]!<(! (!>!F/E/)D/C/ (B,/A,/)G,/F,/ G,2 z2!<)! | %107
!p! (3!plus!D!plus!G!2!B[K:treble]"^1re C.___________|" (3!open!!3!d!open!!plus!g!open!!1!b"^(2e)" (3!open!!2!d'!open!!3!c'"^(1re)"!open!!1!b"^(2e)" !>!!open!!3!c'2 | %108
[K:bass] (3!plus!D!2!F!open!!3!A[K:treble]"^2e C.___________|" (3!open!!plus!d!open!!1!f!open!!2!a"^(1re)" (3!open!!3!c'!open!!1!b"^(2e)"!open!!2!a"^(1re)" !>!!open!!1!b2 | %109
[K:bass] (3!plus!G!2!B[K:treble] !open!!3!d (3!open!!plus!g!open!!1!b!open!!2!d' (3!open!!3!g'!open!!2!d'!open!!1!b (3!open!!2!a"^2e C."!open!!plus!e'!open!!plus!e' | %110
 (3!open!!2!d'!open!!1!b!open!!plus!g"^2e C." (3!open!!3!c'!open!!2!a!open!!1!f"^1re C." (3!open!!plus!g!open!!1!b!open!!3!g (3!open!!3!d!2!B!plus!G | %111
 (3DGB (3dgb (3d'c'b !>!c'2 | (3DFA (3dfa (3c'ba !>!b2 | (3GBd (3gbd' (3g'd'b (3ae'e' | %114
 (3d'bg (3c'af g2 z2 |[K:bass]!f! !>!D,(D,/E,/) F,/G,/A,/B,/ C/D,/E,/F,/ G,/A,/B,/C/ | %116
 D/G,/A,/B,/ C/D/E/F/ G/D/E/F/ G/A/B/c/ | d/D,/c/D,/ B/D,/A/D,/ A/D,/G/D,/ F/D,/E/D,/ | %118
 D/D,/C/D,/ B,/D,/A,/D,/ G,/D/C/B,/ A,/G,/F,/E,/ | !>!D,4!ff! v[D,F]4 | %120
 !arpeggio!v[G,B,DG]2 z2[K:treble]"^Cédez" [db]2 z2 |[K:bass]!f! G,8 |] %122

